X:875
T:John the Blacksmith
B:O'Neill's 875
Z:Transcribed by Dan G. Petersen, dangp@post6.tele.dk
M:6/8
L:1/8
K:D
a|fdd fdd|ecc g2e|fdd fdd|fdd a2f|
gee fdd|ece g2e|faf g2e|fdd d2:|
g|fed c2A|ecc c2g|fed c2A|fdd d2e|
fed d2A|ccc g2e2|faf fg2e|fdd d2:|
